public/assets/images/alert.svg

<svg width="49" height="48" fill="none" xmlns="http://www.w3.org/2000/svg"><path d="M22.5 30h4v4h-4v-4zm0-16h4v12h-4V14zm1.98-10C13.44 4 4.5 12.96 4.5 24s8.94 20 19.98 20c11.06 0 20.02-8.96 20.02-20S35.54 4 24.48 4zm.02 36c-8.84 0-16-7.16-16-16s7.16-16 16-16 16 7.16 16 16-7.16 16-16 16z" fill="var(--ion-color-primary-70)"/></svg>

<svg width="49" height="48" viewBox="0 0 49 48" fill="none" xmlns="http://www.w3.org/2000/svg">
  <path
    d="M22.5 30H26.5V34H22.5V30ZM22.5 14H26.5V26H22.5V14ZM24.48 4C13.44 4 4.5 12.96 4.5 24C4.5 35.04 13.44 44 24.48 44C35.54 44 44.5 35.04 44.5 24C44.5 12.96 35.54 4 24.48 4ZM24.5 40C15.66 40 8.5 32.84 8.5 24C8.5 15.16 15.66 8 24.5 8C33.34 8 40.5 15.16 40.5 24C40.5 32.84 33.34 40 24.5 40Z"
    fill="var(--ion-color-primary-70)" />
</svg>
